X:1
T:Title
%%score { ( 1 3 ) | ( 2 4 ) }
L:1/8
M:6/8
K:F
V:1 treble nm="Grand Piano"
V:3 treble 
V:2 bass 
V:4 bass 
V:1
 z3 z2[Q:1/4=100] [A,C] | [A,CF]2 [CFA] [CEG]2 [CGB] | F2- [Fd] c2 F | A2 A [CGB]2 [CFA] | %4
[M:5/8] [CEG]-[CEG]- [CEG]3 |[M:1/8] [A,C] |[M:3/4] [A,CF]2 [CFA] [CEG]2 [CGB] | F2- [Fd] c2 F | %8
 [CDA]2 [B,DG] [A,CF]2 [G,CE] |[M:5/8] [A,CF]-[A,CF]- [A,CF]3 |[M:1/8] [CFA] | %11
[M:3/4] [CEG]2 [CGB] A2 d | c2 =B c2 d | e2 c d2 =B |[M:5/8] c-c- c3 |[M:1/8] C | %16
[M:3/4] F2 A [EG]2 [GB] | A2 d c2 F | [CDA]2 [B,DG] [A,CF]2 [G,CE] | %19
[M:5/8] [A,CF]-[A,CF]- [A,CF]3 |] %20
V:2
 z3 z2 F, | F,2 F, C,2 E, | z2 B, [F,A,F]2 [F,A,] | [F,CF]2 [F,CF] E,2 F, |[M:5/8] C,-C,- C,3 | %5
[M:1/8] F, |[M:3/4] F,2 F, C,2 E, | z2 B, [F,A,F]2 [F,A,] | B,,2 B,, C,2 C, |[M:5/8] F,-F,- F,3 | %10
[M:1/8] F, |[M:3/4] C,2 E,[K:treble] [F,CF]2 [F,B,F] | [F,F]2- [F,_A,F] [F,=A,F]2 [A,C^F] | %13
 [G,CG]2 [G,CE] [G,=B,F]2 [G,DF] |[M:5/8] E2 B,[K:bass] A,2 |[M:1/8] [G,B,] | %16
[M:3/4] [F,A,C]2 [F,CF] [C,C]2 [E,C] | C2 z2 z2 | B,,2 B,, C,2 C, |[M:5/8] F,-F,- F,3 |] %20
V:3
 x6 | x6 | .[CA]3 z3 | x6 |[M:5/8] x5 |[M:1/8] x |[M:3/4] x6 | [CA]2 z2 z2 | x6 |[M:5/8] x5 | %10
[M:1/8] x |[M:3/4] x6 | x6 | x6 |[M:5/8] z2 G F2 |[M:1/8] x |[M:3/4] x6 | x6 | x6 |[M:5/8] x5 |] %20
V:4
 x6 | x6 | F,3 z3 | x6 |[M:5/8] x5 |[M:1/8] x |[M:3/4] x6 | F,4 z2 | x6 |[M:5/8] x5 |[M:1/8] x | %11
[M:3/4] x3[K:treble] x3 | A,2 z2 z2 | x6 |[M:5/8] C-C- C3[K:bass] |[M:1/8] x |[M:3/4] x6 | %17
 [F,F]2- [F,B,F] [F,A,F]2 [F,A,] | x6 |[M:5/8] x5 |] %20

